X:2179
T:Yn nastey phoosee
T:I stepped up towards her and fell upon my knees 
C:Traditional
O:Isle of Man
B:Kiaull Vannin #179 
N:The MS does not have a # in the key signature and the phrase from 
N:the last note in bar 12 is written one step lower on the stave than shown.
M:6/8 
L:1/8
Q:140 
K:G 
D|G2G G2G|G2B d2B|A2G E2E|E3-E2d|e2f g2f|e3 d2e|B3 A2G|A3 A2d| 
e2f g2f|e3 d2e|B3 A2G|d3-d2d|B2A G2G|G2B d2B|A2G E2E|E3-E2|| 

